X:2699
T:Humours of Donnybrook
O:england
R:double jig
M:6/8
L:1/8
Q:125
K:G
g2G GFG|EGG DGG|g2G GFG|EAG FED|
g2G GFG|EGG DGG|EFG FGA|BGG G3:|
GBd dBG|GBd dBG|GBd dBG|cBc A3|
GBd dBG|GBd def|gfe dcB|cBc A3:|


